{"compressionlevel":-1,"infinite":false,"orientation":"orthogonal","renderorder":"right-down","width":36,"height":24,"tilewidth":16,"tileheight":16,"nextlayerid":99,"nextobjectid":25,"version":"1.10","tiledversion":"1.10.2","type":"map","properties":[{"name":"art","type":"string","value":"Original procedural Precinct pixel art; generated in-repo."}],"tilesets":[{"firstgid":1,"columns":16,"image":"../tilesets/precinct-tileset.png","imageheight":128,"imagewidth":256,"margin":0,"name":"precinct-original","spacing":0,"tilecount":128,"tileheight":16,"tilewidth":16}],"layers":[{"id":1,"name":"floor","type":"tilelayer","data":[0,0,0,0,0,0,0,0,0,0,0,0,0,0,0,0,0,0,0,0,0,0,0,0,0,0,0,0,0,0,0,0,0,0,0,0,0,5,5,5,5,5,5,5,5,5,5,2,1,2,1,2,1,2,1,2,1,2,1,2,1,2,1,2,1,2,1,2,1,2,1,0,0,5,5,5,5,5,5,5,5,5,5,1,2,1,2,1,2,1,2,1,2,1,2,1,2,1,2,1,2,1,2,1,2,1,2,0,0,5,5,5,5,5,5,5,5,5,5,2,1,2,1,2,1,2,1,2,1,2,1,2,1,2,1,2,1,2,1,2,1,2,1,0,0,5,5,5,5,5,5,5,5,5,5,1,2,1,2,1,2,1,2,1,2,1,2,1,2,1,2,1,2,1,2,1,2,1,2,0,0,5,5,5,5,5,5,5,5,5,5,2,1,2,1,2,1,2,1,2,1,2,1,2,1,2,1,2,1,2,1,2,1,2,1,0,0,5,5,5,5,5,5,5,5,5,5,1,2,1,2,1,2,1,2,1,2,1,2,1,2,1,2,1,2,1,2,1,2,1,2,0,0,5,5,5,5,5,5,5,5,5,5,2,1,2,1,2,1,2,1,2,1,2,1,2,1,2,1,2,1,2,1,2,1,2,1,0,0,1,2,1,2,1,2,1,2,1,2,1,2,1,2,1,2,1,2,1,2,1,2,1,2,1,2,1,2,1,2,1,2,1,2,0,0,6,6,6,6,6,6,6,6,6,6,2,3,4,3,4,3,4,3,4,3,4,3,4,3,4,3,2,7,7,7,7,7,7,7,0,0,6,6,6,6,6,6,6,6,6,6,1,4,3,4,3,4,3,4,3,4,3,4,3,4,3,4,1,7,7,7,7,7,7,7,0,0,6,6,6,6,6,6,6,6,6,6,2,3,4,3,4,3,4,3,4,3,4,3,4,3,4,3,2,7,7,7,7,7,7,7,0,0,6,6,6,6,6,6,6,6,6,6,1,4,3,4,3,4,3,4,3,4,3,4,3,4,3,4,1,7,7,7,7,7,7,7,0,0,6,6,6,6,6,6,6,6,6,6,2,3,4,3,4,3,4,3,4,3,4,3,4,3,4,3,2,7,7,7,7,7,7,7,0,0,6,6,6,6,6,6,6,6,6,6,1,4,3,4,3,4,3,4,3,4,3,4,3,4,3,4,1,7,7,7,7,7,7,7,0,0,6,6,6,6,6,6,6,6,6,6,2,3,4,3,4,3,4,3,4,3,4,3,4,3,4,3,2,7,7,7,7,7,7,7,0,0,1,2,1,2,1,2,1,2,1,2,1,4,3,4,3,4,3,4,3,4,3,4,3,4,3,4,1,7,7,7,7,7,7,7,0,0,9,9,9,9,9,9,9,9,9,9,2,3,4,3,4,3,4,3,4,3,4,3,4,3,4,3,2,1,2,1,2,1,2,1,0,0,9,9,9,9,9,9,9,9,9,9,1,4,3,4,3,4,3,4,3,4,3,4,3,4,3,4,1,8,8,8,8,8,8,8,0,0,9,9,9,9,9,9,9,9,9,9,2,3,4,3,4,3,4,3,4,3,4,3,4,3,4,3,2,8,8,8,8,8,8,8,0,0,9,9,9,9,9,9,9,9,9,9,1,4,3,4,3,4,3,4,3,4,3,4,3,4,3,4,1,8,8,8,8,8,8,8,0,0,9,9,9,9,9,9,9,9,9,9,2,3,4,3,4,3,4,3,4,3,4,3,4,3,4,3,2,8,8,8,8,8,8,8,0,0,9,9,9,9,9,9,9,9,9,9,1,4,3,4,3,4,3,4,3,4,3,4,3,4,3,4,1,8,8,8,8,8,8,8,0,0,0,0,0,0,0,0,0,0,0,0,0,0,0,0,0,0,1,2,0,0,0,0,0,0,0,0,0,0,0,0,0,0,0,0,0],"width":36,"height":24,"x":0,"y":0,"opacity":1,"visible":true},{"id":2,"name":"walls","type":"tilelayer","data":[17,17,17,17,17,17,17,17,17,17,17,17,17,17,17,17,17,17,17,17,17,17,17,17,17,17,17,17,17,17,17,17,17,17,17,17,17,0,0,0,0,0,0,0,0,0,0,17,0,0,0,0,0,0,0,0,0,0,0,0,0,0,0,19,0,0,0,0,0,0,0,17,17,0,0,0,0,0,0,0,0,0,0,17,0,0,0,0,0,0,0,0,0,0,0,0,0,0,0,19,0,0,0,0,0,0,0,17,17,0,0,0,0,0,0,0,0,0,0,17,0,0,0,0,0,0,0,0,0,0,0,0,0,0,0,19,0,0,0,0,0,0,0,17,17,0,0,0,0,0,0,0,0,0,0,17,0,0,0,0,0,0,0,0,0,0,0,0,0,0,0,19,0,0,0,0,0,0,0,17,17,0,0,0,0,0,0,0,0,0,0,17,0,0,0,0,0,0,0,0,0,0,0,0,0,0,0,19,0,0,0,0,0,0,0,17,17,0,0,0,0,0,0,0,0,0,0,17,0,0,0,0,0,0,0,0,0,0,0,0,0,0,0,19,0,0,0,0,0,0,0,17,17,0,0,0,0,0,0,0,0,0,0,17,0,0,0,0,0,0,0,0,0,0,0,0,0,0,0,19,0,0,0,0,0,0,0,17,17,17,17,17,17,0,0,17,17,17,17,17,0,0,0,0,0,0,0,0,0,0,0,0,0,0,0,20,20,20,0,0,20,20,20,17,17,0,0,0,0,0,0,0,0,0,0,17,0,0,0,0,0,0,0,0,0,0,0,0,0,0,0,17,0,0,0,0,0,0,0,17,17,0,0,0,0,0,0,0,0,0,0,17,0,0,0,0,0,0,0,0,0,0,0,0,0,0,0,17,0,0,0,0,0,0,0,17,17,0,0,0,0,0,0,0,0,0,0,17,0,0,0,0,0,0,0,0,0,0,0,0,0,0,0,17,0,0,0,0,0,0,0,17,17,0,0,0,0,0,0,0,0,0,0,0,0,0,0,0,0,0,0,0,0,0,0,0,0,0,0,0,0,0,0,0,0,0,0,17,17,0,0,0,0,0,0,0,0,0,0,0,0,0,0,0,0,0,0,0,0,0,0,0,0,0,0,0,0,0,0,0,0,0,0,17,17,0,0,0,0,0,0,0,0,0,0,17,0,0,0,0,0,0,0,0,0,0,0,0,0,0,0,17,0,0,0,0,0,0,0,17,17,0,0,0,0,0,0,0,0,0,0,17,0,0,0,0,0,0,0,0,0,0,0,0,0,0,0,17,0,0,0,0,0,0,0,17,17,17,17,17,17,17,17,17,0,0,17,17,0,0,0,0,0,0,0,0,0,0,0,0,0,0,0,17,0,0,0,0,0,0,0,17,17,0,0,0,0,0,0,0,0,0,0,17,0,0,0,0,0,0,0,0,0,0,0,0,0,0,0,17,17,17,17,0,0,17,17,17,17,0,0,0,0,0,0,0,0,0,0,19,0,0,0,0,0,0,0,0,0,0,0,0,0,0,0,17,0,0,0,0,0,0,0,17,17,0,0,0,0,0,0,0,0,0,0,19,0,0,0,0,0,0,0,0,0,0,0,0,0,0,0,17,0,0,0,0,0,0,0,17,17,0,0,0,0,0,0,0,0,0,0,0,0,0,0,0,0,0,0,0,0,0,0,0,0,0,0,0,0,0,0,0,0,0,0,17,17,0,0,0,0,0,0,0,0,0,0,0,0,0,0,0,0,0,0,0,0,0,0,0,0,0,0,0,0,0,0,0,0,0,0,17,17,0,0,0,0,0,0,0,0,0,0,17,0,0,0,0,0,0,0,0,0,0,0,0,0,0,0,17,0,0,0,0,0,0,0,17,17,18,18,18,18,18,18,18,18,18,18,18,18,18,18,18,18,102,103,18,18,18,18,18,18,18,18,18,18,18,18,18,18,18,18,17],"width":36,"height":24,"x":0,"y":0,"opacity":1,"visible":true},{"id":3,"name":"furniture-below","type":"tilelayer","data":[0,0,0,0,0,0,0,0,0,0,0,0,0,0,0,0,0,0,0,0,0,0,0,0,0,0,0,0,0,0,0,0,0,0,0,0,0,0,0,0,0,0,0,0,0,0,0,0,0,0,0,0,0,0,0,0,0,0,0,0,0,0,0,0,0,0,0,0,0,0,0,0,0,0,0,0,0,0,0,0,0,0,0,0,0,0,0,0,0,0,0,0,0,0,0,0,0,0,0,0,0,0,0,0,0,0,0,0,0,0,0,0,0,0,0,0,0,0,0,0,0,0,0,0,0,0,0,0,0,0,0,0,0,0,0,0,0,0,0,0,0,0,0,0,0,0,0,0,0,0,0,0,0,0,0,0,0,0,0,0,0,0,0,0,0,0,0,0,0,0,0,0,0,0,0,0,0,0,0,0,0,0,0,0,0,0,0,0,0,0,0,0,0,0,0,0,0,0,0,0,0,0,0,0,0,0,0,0,0,0,0,36,0,0,0,0,0,0,0,0,0,0,0,0,0,0,0,0,0,0,0,0,0,0,0,0,0,0,0,0,0,0,0,0,0,0,0,0,0,0,0,0,0,0,0,0,0,0,0,0,0,0,0,0,0,0,0,0,0,0,0,0,0,0,0,0,0,0,0,0,0,0,0,0,36,0,0,0,0,0,0,0,0,0,0,0,0,0,0,0,0,0,0,0,0,0,0,0,0,0,0,0,0,0,0,0,0,0,0,0,0,0,0,0,0,0,0,0,0,0,0,0,0,0,0,0,0,0,0,0,0,0,0,0,0,0,0,0,0,0,0,0,0,0,0,0,0,0,0,0,0,0,0,0,0,0,0,0,0,0,0,0,0,0,0,0,0,0,0,0,0,0,0,0,0,0,0,0,0,0,0,0,0,0,0,0,0,0,0,0,0,0,0,0,0,0,0,0,0,0,0,0,0,0,0,0,0,0,0,0,0,0,0,0,0,0,0,0,0,0,0,0,0,0,0,0,0,0,0,0,0,0,0,0,0,0,0,0,0,0,0,0,0,0,0,0,0,0,0,0,0,0,0,0,0,0,0,0,0,0,0,0,0,0,0,0,0,0,0,0,0,36,0,0,0,36,0,0,0,36,0,0,0,36,0,0,0,0,0,0,0,0,0,0,0,0,0,0,0,0,0,0,0,0,0,0,0,0,0,0,0,0,0,0,0,0,0,0,0,0,0,0,0,0,0,0,0,0,0,0,0,0,0,0,0,0,0,0,0,0,0,0,0,0,0,0,0,0,0,0,0,0,0,0,0,0,0,0,0,0,0,0,0,0,0,0,0,0,0,0,0,0,0,0,0,0,0,0,0,0,0,0,0,0,0,0,0,0,0,0,0,0,0,0,0,0,0,0,0,0,0,0,0,0,0,0,0,0,0,0,0,0,0,0,0,0,0,0,0,0,0,0,0,0,0,0,0,0,0,0,0,0,0,0,0,0,0,0,0,0,0,0,0,0,0,0,0,0,0,0,0,0,0,0,0,0,0,0,0,0,0,0,0,0,0,0,0,0,0,0,0,0,0,0,0,0,0,0,0,0,0,0,0,0,0,0,0,36,0,0,0,36,0,0,0,36,0,0,0,36,0,0,0,0,0,0,0,0,0,0,0,0,0,0,0,0,0,0,0,0,0,0,0,0,0,0,0,0,0,0,0,0,0,0,0,0,0,0,0,0,0,0,0,0,0,0,0,0,0,0,0,0,0,0,0,0,0,0,0,0,0,0,0,0,0,0,0,0,0,0,0,0,0,0,0,0,0,0,0,0,0,0,0,0,0,0,0,0,0,0,0,0,0,0,0,0,0,0,0,0,0,0,0,0,0,0,0,0,0,0,0,0,0,0,0,0,0,0,0,0,0,0,0,0,0,0,0,0,0,0,0,0,0,0,0,0,0,0,0,0,0,0,0,0,0,0,0,0,0,0,0,0,0,0],"width":36,"height":24,"x":0,"y":0,"opacity":1,"visible":true},{"id":4,"name":"furniture-above","type":"tilelayer","data":[0,0,0,0,0,0,0,0,0,0,0,0,0,0,0,0,0,0,0,0,0,0,0,0,0,0,0,0,0,0,0,0,0,0,0,0,0,0,0,0,0,97,0,0,0,0,0,0,0,0,0,0,0,0,0,0,0,0,0,0,0,0,0,0,0,104,0,99,0,104,0,0,0,0,58,0,0,0,0,0,0,59,0,0,0,0,0,0,0,0,0,0,0,0,0,0,0,0,0,0,0,0,0,0,0,0,0,0,0,0,0,0,0,0,0,0,0,0,0,0,0,0,0,0,0,0,0,0,0,0,0,0,0,0,0,0,0,0,0,65,66,0,0,0,0,0,0,0,38,38,38,38,0,0,0,0,0,0,0,0,0,0,0,0,0,0,0,0,0,0,0,0,0,0,33,81,82,0,0,0,0,0,0,0,0,0,0,0,0,0,0,0,0,0,0,0,0,0,0,0,0,0,0,0,0,0,0,0,0,0,0,0,0,0,0,0,0,0,0,0,0,0,0,0,0,0,0,0,0,0,0,0,0,0,0,0,0,0,0,0,0,0,0,0,0,56,0,0,0,0,58,0,0,0,0,0,0,0,0,0,0,0,0,0,0,0,0,0,0,0,0,0,0,0,0,0,0,0,0,0,0,0,0,0,0,0,0,0,0,0,0,0,0,0,0,0,0,0,0,0,0,0,0,0,0,0,0,0,0,0,0,0,0,0,0,0,0,0,0,0,0,0,0,0,0,0,0,0,98,0,0,0,0,0,0,0,0,0,0,0,0,0,0,0,0,0,0,0,0,0,0,0,0,0,0,0,0,0,0,0,0,0,0,0,0,0,0,0,0,0,0,0,56,0,0,0,0,0,0,0,0,0,0,0,0,0,0,0,0,53,0,54,0,49,0,0,0,0,0,0,0,0,0,0,0,0,0,0,0,65,66,0,0,65,66,0,0,65,66,0,0,65,66,0,0,0,0,0,0,0,0,0,0,0,0,39,39,39,0,0,0,0,0,0,33,81,82,0,33,81,82,0,33,81,82,0,33,81,82,0,0,0,0,0,0,0,52,0,0,0,0,0,0,0,0,0,0,0,0,0,0,0,0,0,0,0,0,0,0,0,0,0,0,0,0,0,0,0,0,0,0,0,0,0,0,0,54,0,0,0,0,58,0,60,0,0,0,0,0,0,0,0,0,0,0,0,0,0,0,0,0,0,0,40,0,0,40,0,0,0,0,0,0,0,0,0,0,0,0,0,0,0,0,0,0,0,0,0,0,0,0,0,0,0,0,0,60,0,49,0,0,0,0,0,51,0,0,0,0,0,0,0,0,0,0,0,0,0,0,0,0,0,0,0,0,0,0,0,0,0,0,0,0,0,0,0,0,0,0,0,0,0,0,0,0,0,0,101,0,0,0,0,0,0,0,65,66,0,0,65,66,0,0,65,66,0,0,65,66,0,0,0,0,0,0,0,0,0,0,0,0,0,0,0,0,0,0,0,0,0,33,81,82,0,33,81,82,0,33,81,82,0,33,81,82,0,0,100,0,0,0,0,0,0,0,0,0,0,41,41,41,0,0,0,0,0,0,0,0,0,0,0,0,0,0,0,0,0,0,0,0,0,0,50,50,0,0,50,50,0,0,0,0,0,0,0,0,0,0,0,0,0,0,0,0,0,0,0,0,0,0,0,0,0,0,0,0,0,0,0,0,0,0,0,0,0,0,0,55,0,0,0,0,0,0,0,0,0,57,0,0,0,0,0,0,0,0,0,0,0,0,0,56,0,0,0,0,0,0,0,0,0,0,0,0,0,0,0,0,0,0,0,0,0,0,0,0,0,0,0,0,0,0,0,0,0,0,0,0,0,0,58,0,0,0,0,58,0,0,0,0,0,0,0,0,0,0,0,0,0,0,0,0,0,0,0,0,0,0,0,0,0,0,0,0,0,0,0,0,0,0,0,0,0],"width":36,"height":24,"x":0,"y":0,"opacity":1,"visible":true},{"id":5,"name":"collision","type":"tilelayer","data":[1,1,1,1,1,1,1,1,1,1,1,1,1,1,1,1,1,1,1,1,1,1,1,1,1,1,1,1,1,1,1,1,1,1,1,1,1,0,0,0,0,0,0,0,0,0,0,1,0,0,0,0,0,0,0,0,0,0,0,0,0,0,0,1,0,0,0,0,0,0,0,1,1,0,1,0,0,0,0,0,0,1,0,1,0,0,0,0,0,0,0,0,0,0,0,0,0,0,0,1,0,0,0,0,0,0,0,1,1,0,0,0,0,0,0,0,0,0,0,1,0,0,0,0,0,0,0,0,0,0,0,0,0,0,0,1,0,0,0,0,0,0,0,1,1,0,0,0,1,1,1,1,0,0,0,1,0,0,0,0,0,0,0,0,0,0,0,0,0,0,0,1,0,0,1,1,1,0,0,1,1,0,0,0,0,0,0,0,0,0,0,1,0,0,0,0,0,0,0,0,0,0,0,0,0,0,0,1,0,0,0,0,0,0,0,1,1,0,0,0,0,0,0,0,0,0,0,1,0,0,0,0,0,0,0,0,0,0,0,0,0,0,0,1,0,1,0,0,0,0,1,1,1,0,0,0,0,0,0,0,0,0,0,1,0,0,0,0,0,0,0,0,0,0,0,0,0,0,0,1,0,0,0,0,0,0,0,1,1,1,1,1,1,0,0,1,1,1,1,1,0,0,0,0,0,0,0,0,0,0,0,0,0,0,0,1,1,1,0,0,1,1,1,1,1,0,0,0,0,0,0,0,0,0,0,1,0,0,0,0,0,0,0,0,0,0,0,0,0,0,0,1,0,0,0,0,0,0,0,1,1,0,0,0,0,0,0,0,0,0,0,1,1,0,0,0,0,0,0,0,0,0,0,0,0,0,0,1,0,1,0,1,0,1,0,1,1,0,0,0,0,0,0,0,0,0,0,1,0,0,0,0,0,0,0,0,0,0,0,0,0,0,0,1,0,0,0,0,0,0,0,1,1,0,0,1,1,1,0,0,0,0,0,0,1,1,1,0,1,1,1,0,1,1,1,0,1,1,1,0,0,0,0,0,0,0,1,1,1,0,0,0,0,0,0,0,0,0,0,0,0,0,0,0,0,0,0,0,0,0,0,0,0,0,0,0,0,0,0,0,0,0,0,1,1,0,1,0,0,0,0,1,0,1,0,1,0,0,0,0,0,0,0,0,0,0,0,0,0,0,0,1,0,1,0,0,1,0,0,1,1,0,0,0,0,0,0,0,0,0,0,1,0,0,0,0,0,0,0,0,0,0,0,0,0,0,1,1,1,0,0,0,0,0,1,1,1,1,1,1,1,1,1,1,0,0,1,1,0,0,0,0,0,0,0,0,0,0,0,0,0,0,0,1,0,0,0,0,0,0,0,1,1,0,0,0,0,0,0,0,0,0,0,1,0,0,0,0,0,0,0,0,0,0,0,0,0,0,0,1,1,1,1,0,0,1,1,1,1,0,0,0,0,0,0,0,0,0,0,1,1,1,1,0,1,1,1,0,1,1,1,0,1,1,1,1,0,0,0,0,0,0,0,1,1,0,0,0,1,1,1,0,0,0,0,1,0,0,0,0,0,0,0,0,0,0,0,0,0,0,0,1,0,1,1,0,0,1,1,1,1,0,0,0,0,0,0,0,0,0,0,0,0,0,0,0,0,0,0,0,0,0,0,0,0,0,0,0,0,0,0,0,0,0,0,1,1,0,1,0,0,0,0,0,0,0,0,0,1,0,0,0,0,0,0,0,0,0,0,0,0,0,1,0,0,0,0,0,0,0,0,1,1,0,0,0,0,0,0,0,0,0,0,1,0,0,0,0,0,0,0,0,0,0,0,0,0,0,0,1,0,1,0,0,0,0,1,1,1,1,1,1,1,1,1,1,1,1,1,1,1,1,1,1,1,0,0,1,1,1,1,1,1,1,1,1,1,1,1,1,1,1,1,1],"width":36,"height":24,"x":0,"y":0,"opacity":1,"visible":true},{"id":6,"name":"spawn-points","type":"objectgroup","objects":[{"id":1,"name":"desk-ceo","point":true,"x":496,"y":80,"width":0,"height":0,"rotation":0,"type":"","visible":true},{"id":2,"name":"pc-1","point":true,"x":208,"y":208,"width":0,"height":0,"rotation":0,"type":"","visible":true},{"id":3,"name":"pc-2","point":true,"x":272,"y":208,"width":0,"height":0,"rotation":0,"type":"","visible":true},{"id":4,"name":"pc-3","point":true,"x":336,"y":208,"width":0,"height":0,"rotation":0,"type":"","visible":true},{"id":5,"name":"pc-4","point":true,"x":400,"y":208,"width":0,"height":0,"rotation":0,"type":"","visible":true},{"id":6,"name":"pc-5","point":true,"x":208,"y":304,"width":0,"height":0,"rotation":0,"type":"","visible":true},{"id":7,"name":"pc-6","point":true,"x":272,"y":304,"width":0,"height":0,"rotation":0,"type":"","visible":true},{"id":8,"name":"pc-7","point":true,"x":336,"y":304,"width":0,"height":0,"rotation":0,"type":"","visible":true},{"id":9,"name":"pc-8","point":true,"x":400,"y":304,"width":0,"height":0,"rotation":0,"type":"","visible":true},{"id":10,"name":"cafe-seat-1","point":true,"x":464,"y":208,"width":0,"height":0,"rotation":0,"type":"","visible":true},{"id":11,"name":"cafe-seat-2","point":true,"x":464,"y":240,"width":0,"height":0,"rotation":0,"type":"","visible":true},{"id":12,"name":"cafe-seat-3","point":true,"x":512,"y":208,"width":0,"height":0,"rotation":0,"type":"","visible":true},{"id":13,"name":"cafe-seat-4","point":true,"x":512,"y":240,"width":0,"height":0,"rotation":0,"type":"","visible":true},{"id":14,"name":"cafe-stand-coffee","point":true,"x":464,"y":176,"width":0,"height":0,"rotation":0,"type":"","visible":true},{"id":15,"name":"cafe-stand-vending","point":true,"x":528,"y":192,"width":0,"height":0,"rotation":0,"type":"","visible":true},{"id":16,"name":"entrance","point":true,"x":272,"y":352,"width":0,"height":0,"rotation":0,"type":"","visible":true}],"draworder":"topdown","opacity":1,"visible":true,"x":0,"y":0},{"id":7,"name":"zones","type":"objectgroup","objects":[{"id":17,"name":"boardroom","x":32,"y":32,"width":128,"height":80,"rotation":0,"type":"","visible":true},{"id":18,"name":"operations","x":16,"y":144,"width":160,"height":112,"rotation":0,"type":"","visible":true},{"id":19,"name":"interrogation","x":16,"y":272,"width":160,"height":96,"rotation":0,"type":"","visible":true},{"id":20,"name":"cafeteria","x":448,"y":144,"width":112,"height":128,"rotation":0,"type":"","visible":true},{"id":21,"name":"evidence","x":448,"y":288,"width":112,"height":80,"rotation":0,"type":"","visible":true},{"id":22,"name":"captain-office","x":448,"y":16,"width":112,"height":112,"rotation":0,"type":"","visible":true},{"id":23,"name":"bullpen","x":192,"y":144,"width":240,"height":224,"rotation":0,"type":"","visible":true},{"id":24,"name":"entrance","x":240,"y":320,"width":96,"height":48,"rotation":0,"type":"","visible":true}],"draworder":"topdown","opacity":1,"visible":true,"x":0,"y":0}]}